vms/client/nx_vms_client_core/external_resources/skin/64x64/Solid/group_default.svg

<svg width="64" height="64" viewBox="0 0 64 64" fill="none" xmlns="http://www.w3.org/2000/svg">
<circle class="Primary" cx="32" cy="32" r="32" fill="#212A2F"/>
<path class="Secondary" fill-rule="evenodd" clip-rule="evenodd" d="M26.9999 18C23.6862 18 21 20.6862 21 23.9999V25.9998C21 29.3134 23.6862 31.9997 26.9999 31.9997C30.3135 31.9997 32.9997 29.3134 32.9997 25.9998V23.9999C32.9997 20.6862 30.3135 18 26.9999 18ZM21.441 36C17.9389 36 14.9188 38.476 14.211 41.9273L14.0387 42.7675C13.8024 43.9198 14.677 45 15.8462 45H26.8462H33V42C33 40.3642 33.7856 38.9118 35 37.9996V37C35 36.9521 35.0004 36.9043 35.0013 36.8565C33.967 36.3074 32.7929 36 31.559 36H21.441ZM43.1969 29H43C40.5252 29 38.3129 30.1237 36.8455 31.8887C36.3413 31.7905 35.8596 31.629 35.4091 31.413C36.4155 29.8528 36.9995 27.9945 36.9995 25.9998V23.9999C36.9995 22.0052 36.4155 20.1469 35.4091 18.5866C36.1934 18.2106 37.072 18 37.9999 18C41.3135 18 43.9997 20.6862 43.9997 23.9999V25.9998C43.9997 27.0928 43.7075 28.1174 43.1969 29Z" fill="#A5B7C0"/>
<path class="Tertiary" fill-rule="evenodd" clip-rule="evenodd" d="M43 36H45C45.5523 36 46 36.4477 46 37V41H42V37C42 36.4477 42.4477 36 43 36ZM39 41V37C39 34.7909 40.7909 33 43 33H45C47.2091 33 49 34.7909 49 37V41H50C50.5523 41 51 41.4477 51 42V48C51 48.5523 50.5523 49 50 49H38C37.4477 49 37 48.5523 37 48V42C37 41.4477 37.4477 41 38 41H39Z" fill="#E1E7EA"/>
</svg>

<svg xmlns="http://www.w3.org/2000/svg" width="64" height="64" fill="none" viewBox="0 0 64 64">
  <g class="64x64/Solid/group_default">
    <circle cx="32" cy="32" r="32" fill="#212A2F" class="Primary"/>
    <path fill="#A5B7C0" fill-rule="evenodd" d="M27 18a6 6 0 0 0-6 6v2a6 6 0 0 0 12 0v-2a6 6 0 0 0-6-6Zm-5.56 18c-3.502 0-6.522 2.476-7.23 5.927l-.172.84A1.854 1.854 0 0 0 15.846 45H33v-3c0-1.636.786-3.088 2-4v-1l.001-.144A7.326 7.326 0 0 0 31.56 36H21.441Zm21.756-7H43a7.983 7.983 0 0 0-6.154 2.889 5.953 5.953 0 0 1-1.437-.476A9.953 9.953 0 0 0 37 26v-2a9.954 9.954 0 0 0-1.59-5.413A6 6 0 0 1 44 24v2a5.972 5.972 0 0 1-.802 3Z" class="Secondary" clip-rule="evenodd"/>
    <path fill="#E1E7EA" fill-rule="evenodd" d="M43 36h2a1 1 0 0 1 1 1v4h-4v-4a1 1 0 0 1 1-1Zm-4 5v-4a4 4 0 0 1 4-4h2a4 4 0 0 1 4 4v4h1a1 1 0 0 1 1 1v6a1 1 0 0 1-1 1H38a1 1 0 0 1-1-1v-6a1 1 0 0 1 1-1h1Z" class="Tertiary" clip-rule="evenodd"/>
  </g>
</svg>
